icons/bag-chevron-right.svg

<svg xmlns="http://www.w3.org/2000/svg" width="24" height="24" viewBox="0 0 24 24">
  <path d="M14,2 C15.5976809,2 16.9036609,3.24891996 16.9949073,4.82372721 L17,5 L17,6 L20,6 C21.1045695,6 22,6.8954305 22,8 L22,20 C22,21.1045695 21.1045695,22 20,22 L4,22 C2.8954305,22 2,21.1045695 2,20 L2,8 C2,6.8954305 2.8954305,6 4,6 L7,6 L7,5 C7,3.40231912 8.24891996,2.09633912 9.82372721,2.00509269 L10,2 L14,2 Z M11.6128994,10.2097046 C11.2206082,9.90467972 10.6533772,9.93240926 10.2928932,10.2928932 L10.2928932,10.2928932 L10.2097046,10.3871006 C9.90467972,10.7793918 9.93240926,11.3466228 10.2928932,11.7071068 L10.2928932,11.7071068 L12.585,14 L10.2928932,16.2928932 L10.2097046,16.3871006 C9.90467972,16.7793918 9.93240926,17.3466228 10.2928932,17.7071068 C10.6834175,18.0976311 11.3165825,18.0976311 11.7071068,17.7071068 L11.7071068,17.7071068 L14.7071068,14.7071068 L14.7902954,14.6128994 C15.0953203,14.2206082 15.0675907,13.6533772 14.7071068,13.2928932 L14.7071068,13.2928932 L11.7071068,10.2928932 Z M14,4 L10,4 C9.48716416,4 9.06449284,4.38604019 9.00672773,4.88337887 L9,5 L9,6 L15,6 L15,5 C15,4.48716416 14.6139598,4.06449284 14.1166211,4.00672773 L14,4 Z"/>
</svg>

<svg xmlns="http://www.w3.org/2000/svg" viewBox="0 0 24 24">
  <path d="M14 2a3 3 0 0 1 3 2.82V6h3a2 2 0 0 1 2 2v12a2 2 0 0 1-2 2H4a2 2 0 0 1-2-2V8c0-1.1.9-2 2-2h3V5a3 3 0 0 1 2.82-3H14zm-2.39 8.21a1 1 0 0 0-1.32.08l-.08.1a1 1 0 0 0 .08 1.32L12.6 14l-2.3 2.3-.08.09a1 1 0 0 0 1.5 1.32l3-3 .08-.1a1 1 0 0 0-.08-1.32l-3-3zM14 4h-4a1 1 0 0 0-1 .88V6h6V5a1 1 0 0 0-.88-1H14z"/>
</svg>
